X:10366
T:Marquis Of Huntly
R:Reel
S:(Sean Keane)
H:
N:
D:
Z:Adrian Scahill
M:4/4
L:1/8
K:A
A,2CE AEAB|cAdc BAFG|EA,CE AEcA|dced fe^de|\
ceag fedc|decd BcAE|CEAC DFBA|GE (3dcB A4:||\
A2ce aAgA|aAfA ecBA|GEGB dEcE|dEGB AGFE|\
A2ce aAgA|aAfa ecBA|ceac dfba|gefg a4:||
